X: 2
T:Banks of Alan
M:6/8
L:1/8
B:The Calvert Collection (1799)
Z:Nigel Gatherer
K:D
D|&quot;tr&quot; FGF FED|FA[AF] [A2F2] d|&quot;tr&quot; Bdd Add|Bdd Add|
&quot;tr&quot; FGF FED|FA[AF] [A2F2] d|&quot;tr&quot; Bcd AGF|FEE [E2A,2]||
d/e/|~fgf fed|fa[af] [a2f2]g|~fgf fed|gbb b2 g|
&quot;tr&quot; faa efg|{c]ded fed|&quot;tr&quot; Bcd AGF|FEE [E2A,2]||
